icons/AmazonColor.svg

<svg width="16" height="16" viewBox="0 0 16 16" fill="none" xmlns="http://www.w3.org/2000/svg">
<g clip-path="url(#clip0_2179_3625)">
<path d="M13.7728 12.9175C7.29649 15.9999 3.27724 13.4209 0.704394 11.8545C0.545187 11.7558 0.274591 11.8776 0.50937 12.1473C1.36651 13.1867 4.17556 15.6919 7.84217 15.6919C11.5113 15.6919 13.6941 13.6897 13.9672 13.3404C14.2384 12.9941 14.0468 12.803 13.7727 12.9175H13.7728ZM15.5916 11.9129C15.4177 11.6864 14.5341 11.6442 13.978 11.7125C13.4211 11.7789 12.5851 12.1193 12.6578 12.3237C12.6951 12.4002 12.7712 12.3659 13.1538 12.3315C13.5374 12.2932 14.6122 12.1575 14.8361 12.4503C15.0611 12.7451 14.4933 14.1495 14.3896 14.376C14.2895 14.6025 14.4279 14.6609 14.6161 14.51C14.8017 14.3592 15.1377 13.9687 15.3632 13.4161C15.5872 12.8605 15.7237 12.0854 15.5915 11.9129H15.5916Z" fill="#FF9900"/>
<path fill-rule="evenodd" clip-rule="evenodd" d="M9.41928 6.62789C9.41928 7.43666 9.43972 8.11113 9.03093 8.82936C8.70098 9.41336 8.17833 9.77247 7.59439 9.77247C6.79725 9.77247 6.33301 9.16515 6.33301 8.26881C6.33301 6.49939 7.91843 6.17825 9.41928 6.17825V6.62789ZM11.5128 11.6879C11.3755 11.8105 11.177 11.8193 11.0222 11.7375C10.3332 11.1652 10.2105 10.8995 9.83096 10.3535C8.69224 11.5156 7.88636 11.863 6.40895 11.863C4.6629 11.863 3.30225 10.7856 3.30225 8.62792C3.30225 6.94325 4.2162 5.79575 5.51543 5.23519C6.64252 4.73877 8.21631 4.6512 9.41928 4.51401V4.24537C9.41928 3.7519 9.45719 3.16796 9.16818 2.7417C8.91411 2.3592 8.42944 2.20152 8.00311 2.20152C7.21188 2.20152 6.50527 2.60735 6.33301 3.44824C6.29793 3.63515 6.16074 3.81911 5.97389 3.82785L3.95919 3.61182C3.78987 3.57379 3.60302 3.43661 3.64973 3.1767C4.11397 0.735831 6.31836 0 8.29213 0C9.30241 0 10.6221 0.268644 11.4193 1.03365C12.4295 1.9767 12.3332 3.23511 12.3332 4.60448V7.83959C12.3332 8.81188 12.7361 9.23814 13.1157 9.76373C13.25 9.95058 13.2792 10.1755 13.1098 10.3155C12.6864 10.6688 11.9331 11.3258 11.5185 11.6937L11.5127 11.6879" fill="black"/>
</g>
<defs>
<clipPath id="clip0_2179_3625">
<rect width="16" height="16" fill="white"/>
</clipPath>
</defs>
</svg>

<svg width="16" height="16" fill="none" xmlns="http://www.w3.org/2000/svg"><g clip-path="url(#a)"><path d="M13.773 12.918C7.296 16 3.277 13.42.704 11.854c-.159-.1-.43.023-.195.292.858 1.04 3.667 3.545 7.333 3.545 3.67 0 5.852-2.002 6.125-2.352.271-.346.08-.537-.194-.422zm1.819-1.005c-.174-.227-1.058-.269-1.614-.2-.557.066-1.393.406-1.32.61.037.077.113.043.496.008.383-.038 1.458-.173 1.682.12.225.294-.343 1.698-.446 1.925-.1.226.038.285.226.134.186-.15.522-.541.747-1.094.224-.556.36-1.33.229-1.503z" fill="#F90"/><path fill-rule="evenodd" clip-rule="evenodd" d="M9.42 6.628c0 .809.02 1.483-.39 2.201-.329.584-.852.943-1.436.943-.797 0-1.261-.607-1.261-1.503 0-1.77 1.585-2.09 3.086-2.09v.449zm2.093 5.06a.434.434 0 0 1-.49.05c-.69-.573-.813-.838-1.192-1.384-1.139 1.162-1.945 1.509-3.422 1.509-1.746 0-3.107-1.077-3.107-3.235 0-1.685.914-2.832 2.213-3.393 1.128-.496 2.701-.584 3.904-.721v-.269c0-.493.038-1.077-.25-1.503-.255-.383-.74-.54-1.166-.54-.791 0-1.498.405-1.67 1.246-.035.187-.172.371-.36.38L3.96 3.612c-.17-.038-.356-.175-.31-.435C4.115.736 6.32 0 8.293 0c1.01 0 2.33.269 3.127 1.034 1.01.943.914 2.201.914 3.57V7.84c0 .972.403 1.398.783 1.924.134.187.163.412-.006.552a87.947 87.947 0 0 0-1.591 1.378l-.006-.006" fill="#000"/></g><defs><clipPath id="a"><path fill="#fff" d="M0 0h16v16H0z"/></clipPath></defs></svg>
